X: 20013
T: Jimmy Allen
R: polka
M: 2/4
K: Amajor
A>B|:cA AB|c2 AB/c/|dB Bc|d2 cB|
Aa af|e2 c>d|~e2 d/c/B|1 A2 A>B:|2 A2 AE||
|:Aa a>g|fe dc|Bb b>a|ge fg|a>b a/g/f|
[1 e2 c>d|~e2 d/c/B|A2 AE:|2 e/f/g a2|~e2 d/c/B|A2 A>B||

